X:166
T:Se je soupir
C:Guillaume de Machaut
M: 4/4
L: 1/8
Q:1/4=120
% Last note suggests Lydian mode tune
K:G % 0 sharps
V:1
% Staff
B c2 d2| 
e2 fg ag fe| 
d2z2 ba bg| 
f2 g2 c=f ef|
d2z A B2 A2| 
G4z2 g2| 
=fe de c2 d2| 
e2zG Ac BA|
c4z2zc'| 
c'2 c'2 !breath!c'3b| 
ba2^g az f2| 
=gb ab gz B2|
c=f ef d4| 
z2 zc' c'2 c'2| 
!breath!c'3b ba2^g| 
az f2 =gb ab|
gz B2 c=e de| 
c8 |]
V:2
zzg2=f| 
=ed ec d2 A2| 
zB2G G4| 
d2 G2 ed2c|
B2 !breath!e2 zd2c| 
d4 G4| 
zg2e =fe fd| 
c2 d2 z=e2d|
c4 c4-| 
c4 fa2g-| 
gf2e d4| 
G4- G2 d2|
ed2c B4| 
c4- c4| 
fa2g2f2e| 
d4 G4-|
G2 d2 ed2A| 
c8 |]





